X:1
T:Title
%%score { ( 1 3 ) | ( 2 4 ) }
L:1/8
Q:1/4=95
M:6/8
K:Ab
V:1 treble nm="Grand Piano"
V:3 treble 
V:2 bass 
V:4 bass 
V:1
 [Ec]3 [A,CE]3 | [A,DF][A,FA][A,DF] [A,CE]3 | [G,DE][B,EG][DGB] [DGB]3 | [CE][CEA][EAc] [EAc]3 | %4
w: Thoro~Harris *||||
 [Ec]3 [A,CE]3 | [A,DF][A,FA][A,DF] [CE]3 | [G,E][Gd][Fd] ccB | [CA]6 | z3 .B3 | c3 A3 | %10
w: ||||||
 [GB][GB][Be] f2 =d | [Ge]6 | eee c2 B | [FA]3 F3 | EGB [Gd]2 [DEG] | [CEA]6 |] %16
w: ||||||
V:2
 A,3 A,,3 | D,D,D, A,,3 | E,E,E, E,3 | A,A,A, A,3 | A,3 A,,3 | D,D,F, A,3 | %6
 E,[E,B,][E,B,] [E,G,E][E,G,D][E,G,D] | [A,,A,]6 | z3 .E3 | [A,E]3 [A,CE]3 | %10
 [E,E][E,B,][G,B,][K:treble] [A,CA]2 [B,A] | .B,3 z3 | [A,CE][A,CE][A,CE] [A,E]2 [A,C_G] | %13
 [D,D]3 [D,A,D]3 | [E,G,D][E,D][E,G,E] [E,B,]2 E, | A,,6 |] %16
V:3
 x6 | x6 | x6 | x6 | x6 | x6 | x6 | x6 | BBB z z/ A,/e | x6 | x6 | z B,C DCB, | x6 | x6 | x6 | %15
 x6 |] %16
V:4
 x6 | x6 | x6 | x6 | x6 | x6 | x6 | x6 | [E,G,E][E,G,E][F,A,=D] [G,B,]>F,[E,G,E] | x6 | %10
 x3[K:treble] x3 | E,6 | x6 | x6 | x6 | x6 |] %16

